src/assets/bold/lm-cloud-bold.svg

<svg width="24" height="24" viewBox="0 0 24 24" fill="none" xmlns="http://www.w3.org/2000/svg" fill="currentColor">
<path d="M18.5804 19.3401H6.62507H6.5246C3.61111 19.3401 1.19995 16.9289 1.19995 14.1159C1.19995 11.4033 3.30972 9.19309 6.02228 8.89169C6.62507 7.08332 8.13204 5.67681 10.0409 5.07402C12.2511 4.47123 14.5618 4.87309 16.2697 6.17914C17.7767 7.38472 18.48 9.09262 18.48 10.8005H18.5804C20.8911 10.8005 22.8 12.7094 22.8 15.0201C22.8 17.4312 20.8911 19.3401 18.5804 19.3401ZM6.72553 17.8331H18.5804C20.0874 17.8331 21.293 16.6275 21.293 15.1205C21.293 13.6136 20.0874 12.408 18.5804 12.408H17.5758C17.3748 12.408 17.1739 12.3075 16.973 12.1066C16.8725 11.9056 16.772 11.7047 16.8725 11.5038C17.1739 9.99681 16.6716 8.48983 15.3655 7.48518C14.0595 6.48053 12.2511 6.07867 10.5432 6.581C8.93577 6.98286 7.73018 8.2889 7.32832 9.69541C7.32832 10.0973 7.02693 10.2982 6.62507 10.2982C4.41483 10.2982 2.70693 12.0061 2.70693 14.0154C2.70693 16.1252 4.5153 17.8331 6.72553 17.8331Z" fill="black"/>
</svg>

<svg xmlns="http://www.w3.org/2000/svg" width="24" height="24" fill="currentColor" viewBox="0 0 24 24">
  <path d="M18.58 19.34H6.525c-2.915 0-5.325-2.41-5.325-5.224 0-2.713 2.11-4.923 4.822-5.224.603-1.809 2.11-3.215 4.019-3.818 2.21-.603 4.52-.2 6.229 1.105 1.507 1.206 2.21 2.914 2.21 4.621h.1c2.311 0 4.22 1.91 4.22 4.22 0 2.411-1.909 4.32-4.22 4.32ZM6.726 17.833H18.58a2.701 2.701 0 0 0 2.713-2.712 2.701 2.701 0 0 0-2.713-2.713h-1.004c-.201 0-.402-.1-.603-.301-.1-.201-.201-.402-.1-.603.3-1.507-.201-3.014-1.508-4.019a5.45 5.45 0 0 0-4.822-.904c-1.607.402-2.813 1.708-3.215 3.114 0 .402-.301.603-.703.603-2.21 0-3.918 1.708-3.918 3.717 0 2.11 1.808 3.818 4.019 3.818Z"/>
</svg>
